assets/icons/play-24.svg

<svg width="24" height="24" viewBox="0 0 24 24" fill="none" xmlns="http://www.w3.org/2000/svg">
<path fill-rule="evenodd" clip-rule="evenodd" d="M3 6.93905C3 4.0146 6.07933 2.11255 8.69651 3.4204L18.8241 8.48135C21.7253 9.93111 21.7253 14.0689 18.8241 15.5187L8.69652 20.5796C6.07934 21.8875 3 19.9854 3 17.061V6.93905ZM7.81635 5.17972C6.50776 4.5258 4.9681 5.47683 4.9681 6.93905V17.061C4.9681 18.5232 6.50776 19.4742 7.81636 18.8203L17.944 13.7593C19.3945 13.0344 19.3946 10.9656 17.944 10.2407L7.81635 5.17972Z" fill="#F2F2F2"/>
</svg>

<svg xmlns="http://www.w3.org/2000/svg" width="24" height="24" viewBox="0 0 24 24"><path fill-rule="evenodd" d="M3 6.939C3 4.015 6.08 2.113 8.697 3.42l10.127 5.061c2.901 1.45 2.901 5.588 0 7.038l-10.127 5.06C6.079 21.888 3 19.986 3 17.062V6.939zm4.816-1.76c-1.308-.653-2.848.298-2.848 1.76v10.122c0 1.462 1.54 2.413 2.848 1.76l10.128-5.062c1.45-.725 1.45-2.793 0-3.518L7.816 5.18z"/></svg>
